!!!OTL: Es sollt sich ein J&auml;ger ausjagen (34a), S. 120
!!!id: T0159
**kern
*clefG2
*k[f#]
*G:
{8d
=1
8g
8g
8g
8g
8f#
8g
=2
4a
8b
8a}
8r
=3
{8a
=4
8b
8b
8b
8dd
8cc
8b
=5
4.b
8a}
8r
=6
{8a
=7
4cc
8cc
4ee
8cc
=8
4b
8b
4dd}
=9
{8g
=10
4a
8a
8.cc
16b
16a
16b
=11
2g}
8r
=12
{8a
=13
4cc
8cc
4ee
8cc
=14
4b
8b
4dd}
=15
{8g
=16
4a
8a
8.cc
16b
16a
16b
=17
2g}
8r
==
*-
!!!minrhy: 16
!!!meters: 6/8 ]  ZZ[6
!!!cut: Es sollt sich ein J&auml;ger ausjagen (34a), S. 120
!!!reg: Luxemburg
!!!trd: Singendes Volk, Esch-Alzette 1937 posth.
!!!rhy1: X_  X_X_X_X_X_X_  X__X_X_0   (x2)
!!!rhy2: X_  X_X_X_X_X_X_  X__.X_0
!!!key: T0159  16  G 6/8 ]  ZZ[6
!!!mod: HEPTATONIK IONISCH]  AMBITUS[9
!!!kad: 225151
!!!akz: 1122_3532_4635_2411_4635_2411_
!!!fot: 'a__b__c__bs"c__bs"
!!!for: 'a__b__c__d__c__d__
!!!fok: '/__^__~a_^__~a_^__
!! PHRAS[AUFTAKTIG]
!!!fkt: Liebeslieder
!!!bem1: Hoffelt, hhh Viktor Thill (Lehrer), 2.8.1915;
!!!bem2: Melodieaufzeichnung: hhh Godefroid Heinrich,
!!!bem3: um 1900, (34a+b)
!! THILL, Mathias:
!! PR[39] 2K[0] 2G[4] 3K[9] 3G[7] 4A[7] 4Ü[0] 5A[0] 6K[0] 6G[0]
!! 7K[0] 7G[0] 8A[0] MEHR[0] SI[26] ABS[46] SR[4] SP[22]
!! ST[13] 2k[9] 2g[22] 3k[2] 3g[0] 4d[0] 4ü[0] 5d[2] 6k[0] 6g[0]
!! 7k[0] 7g[0] 8d[0] mehr[0] si[35] dm[-9] sr[30] sp[4]
!! 1F[20] 2F[59] 3F[12] 4F[0] LF[0] 2P[8] 3P[0] 4P[0] TRI[0] DF[4] AB[49]
!! TF[0] U3K[0] U3[0] U4[0] U4Ü[0] U5[4] U6K[0] U6[0] U7K[0] U7[0]
!! N1[28] N2K[0] N2[15] N3K[0] N3[26] N4[13] N4Ü[0] N5[13] N6K[0] N6[2]
!!!n7k: 0] N7[0] O1[0] O2K[0] O2[0] O3K[0] O3[0] HÖ[0
!!!RNB: symbol: &auml;      = a umlaut  (UTF-8: Å„)
